X: 41068
T: Trip To Nenagh, The
R: reel
M: 4/4
K: Dmixolydian
|:d2AG FD~D2|A,DFA dAFG|Ad~d2 d=fed|c2Gc EcGc|
d2AG FD~D2|A,DFA dAFG|Ad~d2 dAFA|GEAG FDD2:|
|:d2fd adfa|gfed ^cAB^c|ddAG FD~D2|EGAB =c2cB|
Ad~d2 adfd|^cdef g2fg|a2ea ^caea|1 ddAG FDD2:|2 ddAG FDFA||

